;FLAVOR:Marlin
;TIME:13318
;Filament used: 13.9807m
;Layer height: 0.2
;Generated with Cura_SteamEngine 4.0.0
M140 S60
M105
M190 S60
M104 S210
M105
M109 S210
M82 ;absolute extrusion mode
G28 ;Home
G1 Z15.0 F6000 ;Move the platform down 15mm
;Prime the extruder
G92 E0
G1 F200 E3
G92 E0
G92 E0
G1 F1500 E-6.5
;LAYER_COUNT:90
;LAYER:0
M107
G0 F3600 X70.365 Y55.597 Z0.3
;TYPE:SKIRT
G1 F1500 E0
G1 F1800 X70.859 Y54.981 E0.03939
G1 X71.412 Y54.418 E0.07877
G1 X72.02 Y53.913 E0.1182
G1 X72.675 Y53.473 E0.15756
G1 X73.372 Y53.101 E0.19698
G1 X74.103 Y52.802 E0.23638
G1 X74.667 Y52.627 E0.26584
G1 X74.827 Y52.584 E0.27411
G1 X75.599 Y52.418 E0.31351
G1 X76.383 Y52.331 E0.35286
G1 X77.173 Y52.324 E0.39227
G1 X77.959 Y52.396 E0.43165
G1 X78.734 Y52.548 E0.47105
G1 X79.459 Y52.767 E0.50884
G1 X93.292 Y28.808 E1.88908
G1 X93.172 Y28.712 E1.89675
G1 X92.609 Y28.158 E1.93615
G1 X92.105 Y27.55 E1.97555
G1 X91.664 Y26.895 E2.01495
G1 X91.293 Y26.198 E2.05434
G1 X90.993 Y25.468 E2.09372
G1 X90.818 Y24.903 E2.12323
G1 X90.775 Y24.743 E2.13149
G1 X90.609 Y23.971 E2.17089
G1 X90.522 Y23.187 E2.21024
G1 X90.515 Y22.397 E2.24966
G1 X90.587 Y21.611 E2.28903
G1 X90.739 Y20.836 E2.32844
G1 X90.968 Y20.08 E2.36784
G1 X91.273 Y19.351 E2.40727
G1 X91.553 Y18.82 E2.43722
G1 X98.213 Y7.282 E3.10187
G1 X98.642 Y6.619 E3.14126
G1 X99.135 Y6.002 E3.18067
G1 X99.689 Y5.439 E3.22007
G1 X100.296 Y4.935 E3.25943
G1 X101.106 Y4.404 E3.30775
G1 X101.199 Y4.351 E3.31309
G1 X101.904 Y3.995 E3.3525
G1 X102.641 Y3.713 E3.39187
G1 X103.403 Y3.506 E3.43126
G1 X104.183 Y3.378 E3.47069
G1 X105.061 Y3.328 E3.51457
G1 X118.383 Y3.328 E4.17921
G1 X119.172 Y3.368 E4.21862
G1 X119.952 Y3.487 E4.25799
G1 X120.717 Y3.685 E4.29741
G1 X121.457 Y3.959 E4.33678
G1 X122.166 Y4.307 E4.37618
G1 X122.837 Y4.725 E4.41562
G1 X123.461 Y5.208 E4.45499
G1 X123.898 Y5.613 E4.48471
G1 X124.015 Y5.73 E4.49297
G1 X124.545 Y6.316 E4.53239
G1 X125.012 Y6.952 E4.57175
G1 X125.413 Y7.632 E4.61114
G1 X125.743 Y8.35 E4.65056
G1 X125.998 Y9.097 E4.68994
G1 X126.168 Y9.828 E4.72738
G1 X153.836 Y9.828 E6.10775
G1 X153.859 Y9.676 E6.11542
G1 X154.057 Y8.911 E6.15484
G1 X154.331 Y8.171 E6.19421
G1 X154.679 Y7.462 E6.23361
G1 X155.097 Y6.791 E6.27305
G1 X155.58 Y6.167 E6.31242
G1 X155.985 Y5.73 E6.34215
G1 X156.102 Y5.613 E6.3504
G1 X156.688 Y5.083 E6.38982
G1 X157.324 Y4.616 E6.42919
G1 X158.004 Y4.215 E6.46857
G1 X158.722 Y3.885 E6.50799
G1 X159.469 Y3.63 E6.54737
G1 X160.238 Y3.451 E6.58676
G1 X161.022 Y3.351 E6.6262
G1 X161.617 Y3.328 E6.6559
G1 X174.939 Y3.328 E7.32054
G1 X175.728 Y3.368 E7.35995
G1 X176.508 Y3.487 E7.39932
G1 X177.273 Y3.685 E7.43874
G1 X178.013 Y3.959 E7.47811
G1 X178.801 Y4.351 E7.52202
G1 X178.894 Y4.404 E7.52736
G1 X179.559 Y4.829 E7.56673
G1 X180.178 Y5.32 E7.60615
G1 X180.745 Y5.87 E7.64556
G1 X181.252 Y6.475 E7.68494
G1 X181.787 Y7.282 E7.73325
G1 X184.673 Y12.283 E8.02131
G1 X184.816 Y12.227 E8.02897
G1 X185.577 Y12.016 E8.06837
G1 X186.356 Y11.883 E8.1078
G1 X187.144 Y11.829 E8.14721
G1 X187.933 Y11.856 E8.18659
G1 X188.715 Y11.962 E8.22596
G1 X189.302 Y12.095 E8.25599
G1 X189.462 Y12.138 E8.26426
G1 X190.214 Y12.382 E8.3037
G1 X190.937 Y12.7 E8.34311
G1 X191.623 Y13.089 E8.38245
G1 X192.268 Y13.546 E8.42189
G1 X192.862 Y14.066 E8.46127
G1 X193.401 Y14.643 E8.50067
G1 X193.879 Y15.272 E8.54008
G1 X194.193 Y15.771 E8.56949
G1 X215.576 Y52.808 E10.70312
G1 X215.936 Y53.511 E10.74253
G1 X216.223 Y54.247 E10.78194
G1 X216.433 Y55.008 E10.82132
G1 X216.566 Y55.786 E10.8607
G1 X216.62 Y56.574 E10.90011
G1 X216.593 Y57.363 E10.93949
G1 X216.487 Y58.146 E10.97891
G1 X216.354 Y58.732 E11.00889
G1 X216.311 Y58.892 E11.01716
G1 X216.067 Y59.644 E11.0566
G1 X215.749 Y60.367 E11.09601
G1 X215.36 Y61.053 E11.13535
G1 X214.903 Y61.698 E11.17479
G1 X214.383 Y62.292 E11.21418
G1 X213.839 Y62.8 E11.25131
G1 X216.724 Y67.796 E11.53913
G1 X217.084 Y68.499 E11.57854
G1 X217.37 Y69.235 E11.61793
G1 X217.581 Y69.996 E11.65733
G1 X217.714 Y70.774 E11.69671
G1 X217.769 Y71.696 E11.74279
G1 X217.769 Y71.804 E11.74818
G1 X217.729 Y72.593 E11.78759
G1 X217.61 Y73.373 E11.82696
G1 X217.412 Y74.138 E11.86638
G1 X217.138 Y74.878 E11.90575
G1 X216.724 Y75.704 E11.95184
G1 X213.837 Y80.703 E12.23985
G1 X213.957 Y80.799 E12.24751
G1 X214.52 Y81.353 E12.28692
G1 X215.024 Y81.961 E12.32632
G1 X215.465 Y82.616 E12.36572
G1 X215.836 Y83.313 E12.40511
G1 X216.136 Y84.043 E12.44448
G1 X216.311 Y84.608 E12.47399
G1 X216.354 Y84.768 E12.48226
G1 X216.52 Y85.54 E12.52165
G1 X216.607 Y86.324 E12.56101
G1 X216.614 Y87.114 E12.60042
G1 X216.542 Y87.9 E12.6398
G1 X216.39 Y88.675 E12.6792
G1 X216.161 Y89.431 E12.71861
G1 X215.856 Y90.16 E12.75804
G1 X215.576 Y90.692 E12.78803
G1 X194.193 Y127.729 E14.92166
G1 X193.764 Y128.392 E14.96106
G1 X193.27 Y129.008 E15.00045
G1 X192.717 Y129.571 E15.03982
G1 X192.109 Y130.076 E15.07925
G1 X191.453 Y130.516 E15.11866
G1 X190.757 Y130.888 E15.15803
G1 X190.026 Y131.187 E15.19744
G1 X189.462 Y131.362 E15.2269
G1 X189.302 Y131.405 E15.23516
G1 X188.53 Y131.571 E15.27456
G1 X187.746 Y131.658 E15.31391
G1 X186.956 Y131.665 E15.35333
G1 X186.17 Y131.593 E15.39271
G1 X185.395 Y131.441 E15.43211
G1 X184.671 Y131.222 E15.46984
G1 X181.787 Y136.218 E15.75764
G1 X181.359 Y136.881 E15.79701
G1 X180.865 Y137.498 E15.83645
G1 X180.311 Y138.061 E15.87585
G1 X179.704 Y138.565 E15.91522
G1 X178.894 Y139.096 E15.96354
G1 X178.801 Y139.149 E15.96888
G1 X178.096 Y139.505 E16.00828
G1 X177.359 Y139.787 E16.04765
G1 X176.597 Y139.994 E16.08704
G1 X175.817 Y140.122 E16.12648
G1 X174.939 Y140.172 E16.17035
G1 X169.164 Y140.172 E16.45847
G1 X169.141 Y140.324 E16.46614
G1 X168.943 Y141.089 E16.50556
G1 X168.669 Y141.829 E16.54493
G1 X168.321 Y142.538 E16.58433
G1 X167.903 Y143.209 E16.62377
G1 X167.42 Y143.833 E16.66314
G1 X167.015 Y144.27 E16.69287
G1 X166.898 Y144.387 E16.70112
G1 X166.312 Y144.917 E16.74054
G1 X165.676 Y145.384 E16.77991
G1 X164.996 Y145.785 E16.81929
G1 X164.278 Y146.115 E16.85871
G1 X163.531 Y146.37 E16.89809
G1 X162.762 Y146.549 E16.93748
G1 X161.978 Y146.649 E16.97692
G1 X161.383 Y146.672 E17.00662
G1 X118.617 Y146.672 E19.14023
G1 X117.828 Y146.632 E19.17964
G1 X117.048 Y146.513 E19.21901
G1 X116.283 Y146.315 E19.25843
G1 X115.543 Y146.041 E19.2978
G1 X114.834 Y145.693 E19.3372
G1 X114.163 Y145.275 E19.37664
G1 X113.539 Y144.792 E19.41601
G1 X113.102 Y144.387 E19.44573
G1 X112.985 Y144.27 E19.45399
G1 X112.455 Y143.684 E19.49341
G1 X111.988 Y143.048 E19.53277
G1 X111.587 Y142.368 E19.57216
G1 X111.257 Y141.65 E19.61158
G1 X111.002 Y140.903 E19.65096
G1 X110.832 Y140.172 E19.6884
G1 X105.061 Y140.172 E19.97632
G1 X104.272 Y140.132 E20.01574
G1 X103.492 Y140.013 E20.0551
G1 X102.727 Y139.815 E20.09452
G1 X101.987 Y139.541 E20.13389
G1 X101.199 Y139.149 E20.1778
G1 X101.106 Y139.096 E20.18314
G1 X100.441 Y138.671 E20.22252
G1 X99.822 Y138.18 E20.26193
G1 X99.255 Y137.63 E20.30134
G1 X98.748 Y137.025 E20.34072
G1 X98.213 Y136.218 E20.38903
G1 X91.553 Y124.68 E21.05368
G1 X91.193 Y123.977 E21.09308
G1 X90.906 Y123.242 E21.13245
G1 X90.695 Y122.481 E21.17184
G1 X90.563 Y121.702 E21.21126
G1 X90.509 Y120.914 E21.25067
G1 X90.536 Y120.125 E21.29006
G1 X90.642 Y119.342 E21.32948
G1 X90.775 Y118.757 E21.35941
G1 X90.818 Y118.597 E21.36767
G1 X91.062 Y117.845 E21.40711
G1 X91.38 Y117.122 E21.44652
G1 X91.769 Y116.436 E21.48586
G1 X92.226 Y115.791 E21.5253
G1 X92.746 Y115.197 E21.56469
G1 X93.29 Y114.689 E21.60182
G1 X79.456 Y90.728 E22.98218
G1 X79.313 Y90.784 E22.98984
G1 X78.552 Y90.995 E23.02924
G1 X77.773 Y91.128 E23.06866
G1 X76.985 Y91.182 E23.10807
G1 X76.196 Y91.155 E23.14746
G1 X75.414 Y91.049 E23.18683
G1 X74.827 Y90.916 E23.21685
G1 X74.667 Y90.873 E23.22512
G1 X73.915 Y90.629 E23.26456
G1 X73.192 Y90.311 E23.30397
G1 X72.506 Y89.922 E23.34331
G1 X71.861 Y89.465 E23.38275
G1 X71.267 Y88.945 E23.42214
G1 X70.728 Y88.368 E23.46153
G1 X70.25 Y87.739 E23.50094
G1 X69.936 Y87.24 E23.53036
G1 X63.276 Y75.704 E24.19492
G1 X62.916 Y75.001 E24.23432
G1 X62.629 Y74.265 E24.27373
G1 X62.419 Y73.504 E24.31312
G1 X62.286 Y72.726 E24.3525
G1 X62.231 Y71.804 E24.39858
G1 X62.231 Y71.696 E24.40397
G1 X62.271 Y70.907 E24.44338
G1 X62.39 Y70.127 E24.48274
G1 X62.588 Y69.362 E24.52217
G1 X62.862 Y68.622 E24.56154
G1 X63.276 Y67.796 E24.60763
G1 X69.936 Y56.26 E25.27219
G1 X70.365 Y55.597 E25.31159
G0 F3600 X70.701 Y55.815
G1 F1800 X71.184 Y55.217 E25.34994
G1 X71.727 Y54.672 E25.38832
G1 X72.324 Y54.186 E25.42673
G1 X72.967 Y53.765 E25.46507
G1 X73.651 Y53.413 E25.50345
G1 X74.368 Y53.134 E25.54184
G1 X74.77 Y53.014 E25.56277
G1 X74.93 Y52.971 E25.57103
G1 X75.683 Y52.81 E25.60945
G1 X76.447 Y52.728 E25.64778
G1 X77.217 Y52.726 E25.6862
G1 X77.982 Y52.804 E25.72456
G1 X78.735 Y52.961 E25.76294
G1 X79.467 Y53.195 E25.80128
G1 X79.632 Y53.267 E25.81026
G1 X93.809 Y28.71 E27.22492
G1 X93.408 Y28.386 E27.25064
G1 X92.863 Y27.843 E27.28902
G1 X92.377 Y27.247 E27.32739
G1 X91.956 Y26.603 E27.36578
G1 X91.604 Y25.919 E27.40415
G1 X91.325 Y25.202 E27.44254
G1 X91.205 Y24.8 E27.46347
G1 X91.162 Y24.64 E27.47173
G1 X91.001 Y23.887 E27.51015
G1 X90.919 Y23.123 E27.54849
G1 X90.917 Y22.353 E27.5869
G1 X90.995 Y21.588 E27.62527
G1 X91.152 Y20.835 E27.66364
G1 X91.386 Y20.103 E27.70198
G1 X91.695 Y19.398 E27.74038
G1 X91.899 Y19.02 E27.76181
G1 X98.559 Y7.482 E28.42646
G1 X98.978 Y6.836 E28.46487
G1 X99.461 Y6.238 E28.50323
G1 X100.004 Y5.693 E28.54161
G1 X100.6 Y5.207 E28.57997
G1 X101.304 Y4.752 E28.62179
G1 X101.397 Y4.699 E28.62713
G1 X102.084 Y4.353 E28.66551
G1 X102.803 Y4.081 E28.70386
G1 X103.547 Y3.884 E28.74226
G1 X104.307 Y3.766 E28.78063
G1 X105.061 Y3.728 E28.8183
G1 X118.383 Y3.728 E29.48293
G1 X119.151 Y3.768 E29.5213
G1 X119.911 Y3.887 E29.55968
G1 X120.654 Y4.085 E29.59804
G1 X121.373 Y4.359 E29.63643
G1 X122.059 Y4.706 E29.67478
G1 X122.706 Y5.122 E29.71316
G1 X123.306 Y5.603 E29.75152
G1 X123.616 Y5.895 E29.77277
G1 X123.733 Y6.012 E29.78103
G1 X124.247 Y6.584 E29.81939
G1 X124.7 Y7.206 E29.85778
G1 X125.086 Y7.871 E29.89614
G1 X125.401 Y8.573 E29.93453
G1 X125.641 Y9.304 E29.97291
G1 X125.804 Y10.055 E30.01125
G1 X125.823 Y10.228 E30.01994
G1 X154.179 Y10.228 E31.43462
G1 X154.259 Y9.717 E31.46043
G1 X154.457 Y8.974 E31.49879
G1 X154.731 Y8.255 E31.53718
G1 X155.078 Y7.569 E31.57553
G1 X155.494 Y6.922 E31.61391
G1 X155.975 Y6.322 E31.65227
G1 X156.267 Y6.012 E31.67352
G1 X156.384 Y5.895 E31.68177
G1 X156.956 Y5.381 E31.72014
G1 X157.578 Y4.928 E31.75853
G1 X158.243 Y4.542 E31.79689
G1 X158.945 Y4.227 E31.83528
G1 X159.676 Y3.987 E31.87366
G1 X160.427 Y3.824 E31.912
G1 X161.192 Y3.74 E31.9504
G1 X161.617 Y3.728 E31.97161
G1 X174.939 Y3.728 E32.63625
G1 X175.707 Y3.768 E32.67462
G1 X176.467 Y3.887 E32.71299
G1 X177.21 Y4.085 E32.75136
G1 X177.929 Y4.359 E32.78974
G1 X178.603 Y4.699 E32.82741
G1 X178.696 Y4.752 E32.83275
G1 X179.344 Y5.167 E32.87114
G1 X179.945 Y5.647 E32.90951
G1 X180.492 Y6.187 E32.94786
G1 X180.981 Y6.78 E32.9862
G1 X181.441 Y7.482 E33.02808
G1 X184.499 Y12.779 E33.33322
G1 X184.981 Y12.594 E33.35898
G1 X185.723 Y12.393 E33.39733
G1 X186.483 Y12.271 E33.43573
G1 X187.25 Y12.228 E33.47406
G1 X188.019 Y12.265 E33.51247
G1 X188.779 Y12.382 E33.55083
G1 X189.199 Y12.482 E33.57237
G1 X189.359 Y12.525 E33.58064
G1 X190.09 Y12.763 E33.61899
G1 X190.793 Y13.075 E33.65736
G1 X191.459 Y13.459 E33.69572
G1 X192.082 Y13.91 E33.73409
G1 X192.655 Y14.423 E33.77246
G1 X193.172 Y14.993 E33.81085
G1 X193.626 Y15.614 E33.84923
G1 X193.847 Y15.971 E33.87018
G1 X215.23 Y53.008 E36.00381
G1 X215.579 Y53.693 E36.04216
G1 X215.855 Y54.411 E36.08054
G1 X216.056 Y55.154 E36.11894
G1 X216.178 Y55.913 E36.15729
G1 X216.221 Y56.681 E36.19567
G1 X216.184 Y57.449 E36.23403
G1 X216.067 Y58.209 E36.27239
G1 X215.967 Y58.629 E36.29393
G1 X215.924 Y58.789 E36.30219
G1 X215.686 Y59.52 E36.34055
G1 X215.374 Y60.223 E36.37892
G1 X214.99 Y60.889 E36.41727
G1 X214.539 Y61.512 E36.45565
G1 X214.026 Y62.085 E36.49402
G1 X213.456 Y62.602 E36.53241
G1 X213.32 Y62.701 E36.5408
G1 X216.377 Y67.996 E36.84583
G1 X216.727 Y68.681 E36.88421
G1 X217.003 Y69.399 E36.92259
G1 X217.204 Y70.141 E36.96094
G1 X217.326 Y70.901 E36.99934
G1 X217.369 Y71.696 E37.03906
G1 X217.369 Y71.804 E37.04445
G1 X217.329 Y72.572 E37.08282
G1 X217.21 Y73.332 E37.1212
G1 X217.012 Y74.075 E37.15956
G1 X216.738 Y74.794 E37.19795
G1 X216.377 Y75.504 E37.23769
G1 X213.319 Y80.8 E37.54279
G1 X213.721 Y81.125 E37.56858
G1 X214.266 Y81.668 E37.60696
G1 X214.752 Y82.264 E37.64533
G1 X215.173 Y82.908 E37.68371
G1 X215.525 Y83.592 E37.72209
G1 X215.804 Y84.309 E37.76048
G1 X215.924 Y84.711 E37.78141
G1 X215.967 Y84.871 E37.78967
G1 X216.128 Y85.624 E37.82809
G1 X216.21 Y86.388 E37.86642
G1 X216.212 Y87.158 E37.90484
G1 X216.134 Y87.923 E37.9432
G1 X215.977 Y88.676 E37.98158
G1 X215.743 Y89.408 E38.01992
G1 X215.434 Y90.113 E38.05832
G1 X215.23 Y90.492 E38.07979
G1 X193.847 Y127.529 E40.21342
G1 X193.428 Y128.174 E40.2518
G1 X192.945 Y128.772 E40.29015
G1 X192.402 Y129.317 E40.32853
G1 X191.805 Y129.803 E40.36693
G1 X191.162 Y130.224 E40.40528
G1 X190.478 Y130.576 E40.44366
G1 X189.761 Y130.855 E40.48204
G1 X189.359 Y130.975 E40.50297
G1 X189.199 Y131.018 E40.51124
G1 X188.446 Y131.179 E40.54965
G1 X187.682 Y131.261 E40.58799
G1 X186.912 Y131.263 E40.6264
G1 X186.147 Y131.185 E40.66477
G1 X185.394 Y131.028 E40.70314
G1 X184.662 Y130.794 E40.74148
G1 X184.498 Y130.722 E40.75042
G1 X181.441 Y136.018 E41.0555
G1 X181.022 Y136.664 E41.09391
G1 X180.539 Y137.262 E41.13226
G1 X179.996 Y137.807 E41.17064
G1 X179.4 Y138.292 E41.20898
G1 X178.696 Y138.748 E41.25083
G1 X178.603 Y138.801 E41.25617
G1 X177.916 Y139.147 E41.29454
G1 X177.197 Y139.419 E41.33289
G1 X176.453 Y139.616 E41.37129
G1 X175.693 Y139.734 E41.40966
G1 X174.939 Y139.772 E41.44733
G1 X168.821 Y139.772 E41.75256
G1 X168.741 Y140.283 E41.77836
G1 X168.543 Y141.026 E41.81672
G1 X168.269 Y141.745 E41.85511
G1 X167.922 Y142.431 E41.89346
G1 X167.506 Y143.078 E41.93184
G1 X167.025 Y143.678 E41.9702
G1 X166.733 Y143.988 E41.99145
G1 X166.616 Y144.105 E41.99971
G1 X166.044 Y144.619 E42.03807
G1 X165.422 Y145.072 E42.07646
G1 X164.757 Y145.458 E42.11482
G1 X164.055 Y145.773 E42.15321
G1 X163.324 Y146.013 E42.19159
G1 X162.573 Y146.176 E42.22993
G1 X161.808 Y146.26 E42.26833
G1 X161.383 Y146.272 E42.28954
G1 X118.617 Y146.272 E44.42315
G1 X117.849 Y146.232 E44.46151
G1 X117.089 Y146.113 E44.49989
G1 X116.346 Y145.915 E44.53825
G1 X115.627 Y145.641 E44.57664
G1 X114.941 Y145.294 E44.615
G1 X114.294 Y144.878 E44.65337
G1 X113.694 Y144.397 E44.69174
G1 X113.384 Y144.105 E44.71298
G1 X113.267 Y143.988 E44.72124
G1 X112.753 Y143.416 E44.7596
G1 X112.3 Y142.794 E44.79799
G1 X111.914 Y142.129 E44.83636
G1 X111.599 Y141.427 E44.87474
G1 X111.359 Y140.696 E44.91313
G1 X111.196 Y139.945 E44.95147
G1 X111.177 Y139.772 E44.96015
G1 X105.061 Y139.772 E45.26528
G1 X104.293 Y139.732 E45.30365
G1 X103.533 Y139.613 E45.34202
G1 X102.79 Y139.415 E45.38039
G1 X102.071 Y139.141 E45.41877
G1 X101.397 Y138.801 E45.45644
G1 X101.304 Y138.748 E45.46178
G1 X100.656 Y138.333 E45.50017
G1 X100.055 Y137.853 E45.53854
G1 X99.508 Y137.313 E45.57689
G1 X99.019 Y136.72 E45.61523
G1 X98.559 Y136.018 E45.65711
G1 X91.899 Y124.48 E46.32175
G1 X91.55 Y123.795 E46.36011
G1 X91.273 Y123.077 E46.3985
G1 X91.073 Y122.335 E46.43684
G1 X90.951 Y121.575 E46.47525
G1 X90.908 Y120.807 E46.51362
G1 X90.945 Y120.039 E46.55198
G1 X91.062 Y119.279 E46.59034
G1 X91.162 Y118.86 E46.61184
G1 X91.205 Y118.7 E46.6201
G1 X91.443 Y117.969 E46.65846
G1 X91.755 Y117.266 E46.69683
G1 X92.139 Y116.6 E46.73518
G1 X92.59 Y115.977 E46.77355
G1 X93.103 Y115.404 E46.81192
G1 X93.673 Y114.887 E46.85031
G1 X93.808 Y114.788 E46.85867
G1 X79.631 Y90.231 E48.27333
G1 X79.148 Y90.417 E48.29915
G1 X78.406 Y90.618 E48.3375
G1 X77.646 Y90.74 E48.3759
G1 X76.879 Y90.783 E48.41423
G1 X76.11 Y90.746 E48.45264
G1 X75.35 Y90.629 E48.491
G1 X74.93 Y90.529 E48.51254
G1 X74.77 Y90.486 E48.52081
G1 X74.039 Y90.248 E48.55916
G1 X73.336 Y89.936 E48.59753
G1 X72.67 Y89.552 E48.63589
G1 X72.047 Y89.101 E48.67426
G1 X71.474 Y88.588 E48.71263
