(G-CODE GENERATED BY FLATCAM v8.991 - www.flatcam.org - Version Date: 2019/12/27)

(Name: Combo_MultiGeo_cnc)
(Type: G-code from Geometry)
(Units: MM)

(Created on Wednesday, 29 April 2020 at 15:18)

(TOOL DIAMETER: 0.2 mm)
(Feedrate: 120.0 mm/min)
(Feedrate_Z: 60.0 mm/min)
(Feedrate rapids 1500.0 mm/min)

(Z_Cut: -0.02 mm)
(Z_Move: 2.0 mm)
(Z Toolchange: 15.0 mm)
(X,Y Toolchange: 0.0000, 0.0000 mm)
(Z Start: None mm)
(Z End: 15.0 mm)
(Steps per circle: 64)
(Preprocessor Geometry: default)

(X range:    9.6500 ...   86.5500  mm)
(Y range:    9.6500 ...   91.3125  mm)

(Spindle Speed: None RPM)
G21
G90
G94




G01 F120.00
G00 Z2.0000

M03
G00 X19.6529 Y26.5832
G01 F60.00
G01 Z-0.0200
G01 F120.00
G01 X19.6531 Y26.5634
G01 X19.6547 Y26.5360
G01 X19.6580 Y26.5050
G01 X19.6623 Y26.4779
G01 X19.6658 Y26.4607
G01 X19.6687 Y26.4474
G01 X19.6756 Y26.4208
G01 X19.6849 Y26.3910
G01 X19.6944 Y26.3652
G01 X19.7012 Y26.3490
G01 X19.7066 Y26.3365
G01 X19.7186 Y26.3118
G01 X19.7335 Y26.2845
G01 X19.7479 Y26.2610
G01 X19.7655 Y26.2353
G01 X19.7738 Y26.2241
G01 X19.7820 Y26.2134
G01 X19.8020 Y26.1894
G01 X19.8207 Y26.1693
G01 X19.8429 Y26.1474
G01 X19.8533 Y26.1381
G01 X19.8634 Y26.1292
G01 X19.8877 Y26.1096
G01 X19.9100 Y26.0934
G01 X19.9477 Y26.0691
G01 X30.5366 Y19.8563
G01 X30.5596 Y19.8441
G01 X30.5802 Y19.8341
G01 X30.6041 Y19.8238
G01 X30.6668 Y19.7995
G01 X30.6795 Y19.7949
G01 X30.7086 Y19.7854
G01 X30.7346 Y19.7781
G01 X30.7644 Y19.7714
G01 X30.7910 Y19.7667
G01 X30.8214 Y19.7629
G01 X30.8483 Y19.7608
G01 X30.8788 Y19.7599
G01 X30.9058 Y19.7604
G01 X30.9363 Y19.7624
G01 X30.9631 Y19.7655
G01 X30.9933 Y19.7705
G01 X31.0197 Y19.7762
G01 X31.0493 Y19.7840
G01 X31.0750 Y19.7922
G01 X31.1037 Y19.8028
G01 X31.1285 Y19.8134
G01 X31.1560 Y19.8268
G01 X31.1796 Y19.8398
G01 X31.2058 Y19.8557
G01 X31.2281 Y19.8709
G01 X31.2525 Y19.8893
G01 X31.2733 Y19.9065
G01 X31.2958 Y19.9272
G01 X31.3148 Y19.9463
G01 X31.3353 Y19.9691
G01 X31.3524 Y19.9899
G01 X31.3706 Y20.0146
G01 X31.3855 Y20.0370
G01 X31.4013 Y20.0632
G01 X31.4140 Y20.0870
G01 X31.4272 Y20.1146
G01 X31.4376 Y20.1395
G01 X31.4480 Y20.1683
G01 X31.4559 Y20.1941
G01 X31.4635 Y20.2237
G01 X31.4690 Y20.2501
G01 X31.4737 Y20.2803
G01 X31.4766 Y20.3072
G01 X31.4784 Y20.3377
G01 X31.4786 Y20.3647
G01 X31.4775 Y20.3953
G01 X31.4752 Y20.4221
G01 X31.4711 Y20.4525
G01 X31.4662 Y20.4790
G01 X31.4592 Y20.5088
G01 X31.4518 Y20.5347
G01 X31.4419 Y20.5637
G01 X31.4321 Y20.5888
G01 X31.4195 Y20.6167
G01 X31.4136 Y20.6288
G01 X31.3677 Y20.7189
G01 X31.3511 Y20.7701
G01 X31.3423 Y20.8257
G01 X31.3394 Y21.1949
G01 X31.3389 Y21.2085
G01 X31.3372 Y21.2393
G01 X31.3343 Y21.2664
G01 X31.3296 Y21.2969
G01 X31.3241 Y21.3235
G01 X31.3165 Y21.3534
G01 X31.3085 Y21.3794
G01 X31.2979 Y21.4084
G01 X31.2874 Y21.4335
G01 X31.2741 Y21.4614
G01 X31.2612 Y21.4853
G01 X31.2453 Y21.5117
G01 X31.2302 Y21.5343
G01 X31.2117 Y21.5591
G01 X31.1945 Y21.5801
G01 X31.1643 Y21.6128
G01 X26.2439 Y26.5332
G01 X25.8700 Y26.9129
G01 X25.7909 Y27.0218
G01 X25.7308 Y27.1398
G01 X25.6899 Y27.2656
G01 X25.6691 Y27.3967
G01 X25.6648 Y31.7214
G01 X25.6644 Y31.7357
G01 X25.6627 Y31.7681
G01 X25.6598 Y31.7965
G01 X25.6548 Y31.8285
G01 X25.6490 Y31.8565
G01 X25.6408 Y31.8878
G01 X25.6321 Y31.9150
G01 X25.6208 Y31.9454
G01 X25.6094 Y31.9716
G01 X25.5950 Y32.0006
G01 X25.5810 Y32.0255
G01 X25.5638 Y32.0529
G01 X25.5473 Y32.0763
G01 X25.5274 Y32.1018
G01 X25.5086 Y32.1233
G01 X25.4862 Y32.1467
G01 X25.4653 Y32.1662
G01 X25.4406 Y32.1871
G01 X25.4179 Y32.2045
G01 X25.3912 Y32.2228
G01 X25.3792 Y32.2305
G01 X25.3027 Y32.2774
G01 X25.2911 Y32.2841
G01 X25.2646 Y32.2986
G01 X25.2406 Y32.3103
G01 X25.2128 Y32.3223
G01 X25.1878 Y32.3317
G01 X25.1590 Y32.3409
G01 X25.1332 Y32.3479
G01 X25.1037 Y32.3544
G01 X25.0773 Y32.3588
G01 X25.0473 Y32.3625
G01 X25.0207 Y32.3644
G01 X24.9904 Y32.3652
G01 X24.9637 Y32.3646
G01 X24.9335 Y32.3624
G01 X24.9070 Y32.3593
G01 X24.8772 Y32.3543
G01 X24.8511 Y32.3486
G01 X24.8218 Y32.3408
G01 X24.7964 Y32.3327
G01 X24.7680 Y32.3222
G01 X24.7435 Y32.3117
G01 X24.7163 Y32.2985
G01 X24.6928 Y32.2857
G01 X24.6670 Y32.2699
G01 X24.6449 Y32.2550
G01 X24.6206 Y32.2368
G01 X24.6001 Y32.2199
G01 X24.5680 Y32.1903
G01 X21.1625 Y28.7848
G01 X21.1331 Y28.7532
G01 X20.9809 Y28.5773
G01 X20.9539 Y28.5434
G01 X20.9386 Y28.5219
G01 X20.9223 Y28.4966
G01 X20.9091 Y28.4737
G01 X20.8953 Y28.4470
G01 X20.8843 Y28.4229
G01 X20.8730 Y28.3950
G01 X20.8643 Y28.3700
G01 X20.8558 Y28.3412
G01 X20.8495 Y28.3155
G01 X20.8438 Y28.2860
G01 X20.8399 Y28.2598
G01 X20.8370 Y28.2299
G01 X20.8356 Y28.2035
G01 X20.8355 Y28.1734
G01 X20.8367 Y28.1470
G01 X20.8394 Y28.1170
G01 X20.8430 Y28.0908
G01 X20.8486 Y28.0613
G01 X20.8547 Y28.0355
G01 X20.8630 Y28.0066
G01 X20.8795 Y27.9571
G01 X20.8931 Y27.8929
G01 X20.8960 Y27.8391
G01 X20.8903 Y27.7855
G01 X20.8764 Y27.7334
G01 X20.8545 Y27.6842
G01 X20.8251 Y27.6390
G01 X20.7890 Y27.5989
G01 X20.7465 Y27.5645
G01 X19.9498 Y27.1014
G01 X19.9266 Y27.0869
G01 X19.9008 Y27.0693
G01 X19.8789 Y27.0527
G01 X19.8550 Y27.0327
G01 X19.8348 Y27.0141
G01 X19.8224 Y27.0017
G01 X19.8037 Y26.9816
G01 X19.7836 Y26.9578
G01 X19.7669 Y26.9359
G01 X19.7493 Y26.9103
G01 X19.7419 Y26.8987
G01 X19.7280 Y26.8750
G01 X19.7136 Y26.8474
G01 X19.7021 Y26.8225
G01 X19.6904 Y26.7935
G01 X19.6814 Y26.7676
G01 X19.6726 Y26.7377
G01 X19.6662 Y26.7110
G01 X19.6604 Y26.6803
G01 X19.6566 Y26.6531
G01 X19.6539 Y26.6221
G01 X19.6528 Y26.5946
G01 X19.6529 Y26.5832
G00 Z2.0000
G00 X19.8329 Y26.5828
G01 F60.00
G01 Z-0.0200
G01 F120.00
G01 X19.8328 Y26.5747
G01 X19.8336 Y26.5553
G01 X19.8370 Y26.5243
G01 X19.8385 Y26.5146
G01 X19.8428 Y26.4934
G01 X19.8473 Y26.4746
G01 X19.8567 Y26.4449
G01 X19.8601 Y26.4357
G01 X19.8684 Y26.4157
G01 X19.8765 Y26.3981
G01 X19.8915 Y26.3708
G01 X19.8966 Y26.3624
G01 X19.9087 Y26.3444
G01 X19.9201 Y26.3288
G01 X19.9401 Y26.3049
G01 X19.9468 Y26.2977
G01 X19.9621 Y26.2824
G01 X19.9763 Y26.2694
G01 X20.0006 Y26.2498
G01 X20.0086 Y26.2440
G01 X20.0388 Y26.2244
G01 X30.6177 Y20.0172
G01 X30.6442 Y20.0029
G01 X30.6516 Y19.9994
G01 X30.6793 Y19.9875
G01 X30.7314 Y19.9675
G01 X30.7650 Y19.9563
G01 X30.7743 Y19.9537
G01 X30.8041 Y19.9470
G01 X30.8136 Y19.9453
G01 X30.8440 Y19.9415
G01 X30.8536 Y19.9407
G01 X30.8842 Y19.9398
G01 X30.8938 Y19.9400
G01 X30.9243 Y19.9420
G01 X30.9339 Y19.9431
G01 X30.9641 Y19.9481
G01 X30.9735 Y19.9501
G01 X31.0031 Y19.9580
G01 X31.0123 Y19.9609
G01 X31.0409 Y19.9716
G01 X31.0498 Y19.9753
G01 X31.0773 Y19.9887
G01 X31.0858 Y19.9933
G01 X31.1119 Y20.0093
G01 X31.1198 Y20.0147
G01 X31.1443 Y20.0331
G01 X31.1517 Y20.0393
G01 X31.1743 Y20.0599
G01 X31.1811 Y20.0668
G01 X31.2015 Y20.0895
G01 X31.2076 Y20.0970
G01 X31.2258 Y20.1216
G01 X31.2312 Y20.1296
G01 X31.2469 Y20.1558
G01 X31.2515 Y20.1643
G01 X31.2646 Y20.1919
G01 X31.2683 Y20.2008
G01 X31.2787 Y20.2296
G01 X31.2816 Y20.2388
G01 X31.2892 Y20.2684
G01 X31.2911 Y20.2779
G01 X31.2959 Y20.3081
G01 X31.2969 Y20.3177
G01 X31.2987 Y20.3482
G01 X31.2988 Y20.3579
G01 X31.2976 Y20.3884
G01 X31.2968 Y20.3980
G01 X31.2927 Y20.4284
G01 X31.2909 Y20.4378
G01 X31.2839 Y20.4676
G01 X31.2813 Y20.4769
G01 X31.2715 Y20.5059
G01 X31.2679 Y20.5148
G01 X31.2533 Y20.5471
G01 X31.2009 Y20.6498
G01 X31.1755 Y20.7280
G01 X31.1624 Y20.8108
G01 X31.1594 Y21.1935
G01 X31.1575 Y21.2292
G01 X31.1565 Y21.2388
G01 X31.1517 Y21.2693
G01 X31.1498 Y21.2788
G01 X31.1421 Y21.3087
G01 X31.1393 Y21.3180
G01 X31.1287 Y21.3470
G01 X31.1250 Y21.3560
G01 X31.1117 Y21.3838
G01 X31.1071 Y21.3924
G01 X31.0912 Y21.4188
G01 X31.0857 Y21.4269
G01 X31.0673 Y21.4517
G01 X31.0611 Y21.4592
G01 X31.0371 Y21.4855
G01 X26.1162 Y26.4064
G01 X25.7323 Y26.7962
G01 X25.6369 Y26.9275
G01 X25.5640 Y27.0707
G01 X25.5143 Y27.2235
G01 X25.4892 Y27.3824
G01 X25.4848 Y31.7213
G01 X25.4829 Y31.7587
G01 X25.4819 Y31.7689
G01 X25.4769 Y31.8009
G01 X25.4748 Y31.8109
G01 X25.4666 Y31.8422
G01 X25.4635 Y31.8519
G01 X25.4522 Y31.8823
G01 X25.4481 Y31.8916
G01 X25.4337 Y31.9206
G01 X25.4288 Y31.9295
G01 X25.4115 Y31.9570
G01 X25.4056 Y31.9653
G01 X25.3856 Y31.9908
G01 X25.3790 Y31.9985
G01 X25.3565 Y32.0218
G01 X25.3490 Y32.0288
G01 X25.3243 Y32.0498
G01 X25.3162 Y32.0559
G01 X25.2852 Y32.0770
G01 X25.2046 Y32.1263
G01 X25.1780 Y32.1408
G01 X25.1695 Y32.1450
G01 X25.1417 Y32.1570
G01 X25.1327 Y32.1603
G01 X25.1039 Y32.1696
G01 X25.0947 Y32.1721
G01 X25.0651 Y32.1785
G01 X25.0557 Y32.1801
G01 X25.0257 Y32.1838
G01 X25.0162 Y32.1845
G01 X24.9859 Y32.1852
G01 X24.9764 Y32.1850
G01 X24.9462 Y32.1829
G01 X24.9367 Y32.1818
G01 X24.9069 Y32.1768
G01 X24.8975 Y32.1747
G01 X24.8683 Y32.1669
G01 X24.8592 Y32.1640
G01 X24.8308 Y32.1535
G01 X24.8221 Y32.1497
G01 X24.7948 Y32.1365
G01 X24.7865 Y32.1319
G01 X24.7606 Y32.1162
G01 X24.7527 Y32.1109
G01 X24.7285 Y32.0927
G01 X24.7211 Y32.0867
G01 X24.6953 Y32.0630
G01 X21.2898 Y28.6575
G01 X21.2693 Y28.6354
G01 X21.1170 Y28.4595
G01 X21.0955 Y28.4322
G01 X21.0900 Y28.4245
G01 X21.0737 Y28.3993
G01 X21.0690 Y28.3911
G01 X21.0552 Y28.3644
G01 X21.0513 Y28.3558
G01 X21.0401 Y28.3279
G01 X21.0370 Y28.3190
G01 X21.0284 Y28.2902
G01 X21.0262 Y28.2810
G01 X21.0204 Y28.2515
G01 X21.0191 Y28.2421
G01 X21.0161 Y28.2122
G01 X21.0156 Y28.2028
G01 X21.0155 Y28.1727
G01 X21.0159 Y28.1633
G01 X21.0187 Y28.1334
G01 X21.0200 Y28.1240
G01 X21.0255 Y28.0945
G01 X21.0277 Y28.0853
G01 X21.0374 Y28.0519
G01 X21.0534 Y28.0049
G01 X21.0722 Y27.9165
G01 X21.0765 Y27.8343
G01 X21.0679 Y27.7526
G01 X21.0466 Y27.6731
G01 X21.0132 Y27.5981
G01 X20.9684 Y27.5291
G01 X20.9133 Y27.4680
G01 X20.8490 Y27.4159
G01 X20.0403 Y26.9457
G01 X20.0280 Y26.9382
G01 X20.0100 Y26.9262
G01 X19.9944 Y26.9147
G01 X19.9777 Y26.9010
G01 X19.9633 Y26.8880
G01 X19.9480 Y26.8728
G01 X19.9349 Y26.8584
G01 X19.9154 Y26.8342
G01 X19.9096 Y26.8262
G01 X19.8925 Y26.8001
G01 X19.8876 Y26.7917
G01 X19.8774 Y26.7726
G01 X19.8690 Y26.7551
G01 X19.8607 Y26.7352
G01 X19.8541 Y26.7170
G01 X19.8479 Y26.6963
G01 X19.8431 Y26.6775
G01 X19.8389 Y26.6563
G01 X19.8359 Y26.6371
G01 X19.8332 Y26.6061
G01 X19.8328 Y26.5963
G01 X19.8329 Y26.5828
G00 Z2.0000
G00 X18.1804 Y28.5569
G01 F60.00
G01 Z-0.0200
G01 F120.00
G01 X19.0804 Y26.9981
G01 X19.0858 Y26.9898
G01 X19.0919 Y26.9821
G01 X19.0987 Y26.9751
G01 X19.1062 Y26.9687
G01 X19.1142 Y26.9632
G01 X19.1228 Y26.9584
G01 X19.1318 Y26.9545
G01 X19.1412 Y26.9515
G01 X19.1507 Y26.9494
G01 X19.1605 Y26.9483
G01 X19.1703 Y26.9481
G01 X19.1801 Y26.9489
G01 X19.1897 Y26.9507
G01 X19.1992 Y26.9534
G01 X19.2083 Y26.9570
G01 X19.2170 Y26.9615
G01 X20.6027 Y27.7615
G01 X20.6109 Y27.7668
G01 X20.6186 Y27.7729
G01 X20.6257 Y27.7797
G01 X20.6320 Y27.7872
G01 X20.6376 Y27.7953
G01 X20.6424 Y27.8038
G01 X20.6463 Y27.8128
G01 X20.6493 Y27.8222
G01 X20.6514 Y27.8318
G01 X20.6525 Y27.8415
G01 X20.6526 Y27.8513
G01 X20.6518 Y27.8611
G01 X20.6501 Y27.8708
G01 X20.6474 Y27.8802
G01 X20.6438 Y27.8893
G01 X20.6393 Y27.8981
G01 X20.3794 Y28.3482
G01 X24.3944 Y32.3632
G01 X24.4308 Y32.4031
G01 X24.4370 Y32.4107
G01 X24.4663 Y32.4501
G01 X24.4717 Y32.4583
G01 X24.4970 Y32.5004
G01 X24.5016 Y32.5091
G01 X24.5226 Y32.5534
G01 X24.5263 Y32.5625
G01 X24.5429 Y32.6087
G01 X24.5457 Y32.6181
G01 X24.5576 Y32.6657
G01 X24.5596 Y32.6754
G01 X24.5668 Y32.7239
G01 X24.5677 Y32.7337
G01 X24.5703 Y32.7876
G01 X24.5703 Y44.2641
G01 X25.0570 Y44.7508
G01 X25.0636 Y44.7581
G01 X25.0694 Y44.7660
G01 X25.0745 Y44.7744
G01 X25.0787 Y44.7833
G01 X25.0820 Y44.7925
G01 X25.0843 Y44.8020
G01 X25.0858 Y44.8117
G01 X25.0863 Y44.8215
G01 X25.0863 Y45.6635
G01 X25.0858 Y45.6733
G01 X25.0843 Y45.6830
G01 X25.0820 Y45.6925
G01 X25.0787 Y45.7017
G01 X25.0745 Y45.7106
G01 X25.0694 Y45.7190
G01 X25.0636 Y45.7269
G01 X25.0570 Y45.7342
G01 X24.4617 Y46.3295
G01 X24.4544 Y46.3361
G01 X24.4465 Y46.3419
G01 X24.4381 Y46.3470
G01 X24.4292 Y46.3512
G01 X24.4200 Y46.3545
G01 X24.4105 Y46.3568
G01 X24.4008 Y46.3583
G01 X24.3910 Y46.3588
G01 X23.5490 Y46.3588
G01 X23.5392 Y46.3583
G01 X23.5295 Y46.3568
G01 X23.5200 Y46.3545
G01 X23.5108 Y46.3512
G01 X23.5019 Y46.3470
G01 X23.4935 Y46.3419
G01 X23.4856 Y46.3361
G01 X23.4783 Y46.3295
G01 X22.8830 Y45.7342
G01 X22.8764 Y45.7269
G01 X22.8706 Y45.7190
G01 X22.8655 Y45.7106
G01 X22.8613 Y45.7017
G01 X22.8580 Y45.6925
G01 X22.8557 Y45.6830
G01 X22.8542 Y45.6733
G01 X22.8537 Y45.6635
G01 X22.8537 Y44.8215
G01 X22.8542 Y44.8117
G01 X22.8557 Y44.8020
G01 X22.8580 Y44.7925
G01 X22.8613 Y44.7833
G01 X22.8655 Y44.7744
G01 X22.8706 Y44.7660
G01 X22.8764 Y44.7581
G01 X22.8830 Y44.7508
G01 X23.3697 Y44.2641
G01 X23.3697 Y33.0363
G01 X19.7580 Y29.4245
G01 X19.7393 Y29.4569
G01 X19.7340 Y29.4652
G01 X19.7279 Y29.4729
G01 X19.7211 Y29.4799
G01 X19.7136 Y29.4863
G01 X19.7055 Y29.4918
G01 X19.6969 Y29.4966
G01 X19.6879 Y29.5005
G01 X19.6786 Y29.5035
G01 X19.6690 Y29.5056
G01 X19.6592 Y29.5067
G01 X19.6494 Y29.5069
G01 X19.6396 Y29.5061
G01 X19.6300 Y29.5043
G01 X19.6206 Y29.5016
G01 X19.6114 Y29.4980
G01 X19.6027 Y29.4935
G01 X18.2170 Y28.6935
G01 X18.2088 Y28.6882
G01 X18.2011 Y28.6821
G01 X18.1941 Y28.6753
G01 X18.1877 Y28.6678
G01 X18.1821 Y28.6597
G01 X18.1774 Y28.6512
G01 X18.1734 Y28.6422
G01 X18.1704 Y28.6328
G01 X18.1684 Y28.6232
G01 X18.1673 Y28.6135
G01 X18.1671 Y28.6037
G01 X18.1679 Y28.5939
G01 X18.1697 Y28.5842
G01 X18.1723 Y28.5748
G01 X18.1760 Y28.5657
G01 X18.1804 Y28.5569
G00 Z2.0000
G00 X18.0246 Y28.4669
G01 F60.00
G01 Z-0.0200
G01 F120.00
G01 X18.9246 Y26.9081
G01 X18.9394 Y26.8850
G01 X18.9565 Y26.8635
G01 X18.9756 Y26.8437
G01 X18.9966 Y26.8259
G01 X19.0192 Y26.8103
G01 X19.0432 Y26.7969
G01 X19.0684 Y26.7860
G01 X19.0946 Y26.7776
G01 X19.1214 Y26.7718
G01 X19.1487 Y26.7687
G01 X19.1762 Y26.7682
G01 X19.2036 Y26.7705
G01 X19.2306 Y26.7754
G01 X19.2570 Y26.7829
G01 X19.2826 Y26.7930
G01 X19.3070 Y26.8056
G01 X20.6927 Y27.6056
G01 X20.7158 Y27.6205
G01 X20.7373 Y27.6376
G01 X20.7571 Y27.6567
G01 X20.7748 Y27.6776
G01 X20.7905 Y27.7002
G01 X20.8038 Y27.7242
G01 X20.8148 Y27.7494
G01 X20.8232 Y27.7756
G01 X20.8290 Y27.8025
G01 X20.8321 Y27.8298
G01 X20.8326 Y27.8572
G01 X20.8303 Y27.8846
G01 X20.8254 Y27.9117
G01 X20.8178 Y27.9381
G01 X20.8077 Y27.9636
G01 X20.7952 Y27.9881
G01 X20.6044 Y28.3186
G01 X24.5217 Y32.2359
G01 X24.5312 Y32.2459
G01 X24.5642 Y32.2822
G01 X24.5816 Y32.3035
G01 X24.6108 Y32.3429
G01 X24.6261 Y32.3658
G01 X24.6513 Y32.4079
G01 X24.6643 Y32.4321
G01 X24.6853 Y32.4765
G01 X24.6958 Y32.5019
G01 X24.7123 Y32.5481
G01 X24.7203 Y32.5744
G01 X24.7322 Y32.6220
G01 X24.7376 Y32.6490
G01 X24.7448 Y32.6975
G01 X24.7475 Y32.7249
G01 X24.7499 Y32.7739
G01 X24.7503 Y32.7876
G01 X24.7503 Y44.1895
G01 X25.1843 Y44.6235
G01 X25.2027 Y44.6439
G01 X25.2191 Y44.6660
G01 X25.2332 Y44.6895
G01 X25.2450 Y44.7144
G01 X25.2542 Y44.7403
G01 X25.2609 Y44.7669
G01 X25.2649 Y44.7941
G01 X25.2663 Y44.8215
G01 X25.2663 Y45.6635
G01 X25.2649 Y45.6909
G01 X25.2609 Y45.7181
G01 X25.2542 Y45.7447
G01 X25.2450 Y45.7706
G01 X25.2332 Y45.7955
G01 X25.2191 Y45.8190
G01 X25.2027 Y45.8411
G01 X25.1843 Y45.8615
G01 X24.5890 Y46.4568
G01 X24.5686 Y46.4752
G01 X24.5465 Y46.4916
G01 X24.5230 Y46.5057
G01 X24.4981 Y46.5175
G01 X24.4722 Y46.5267
G01 X24.4456 Y46.5334
G01 X24.4184 Y46.5374
G01 X24.3910 Y46.5388
G01 X23.5490 Y46.5388
G01 X23.5216 Y46.5374
G01 X23.4944 Y46.5334
G01 X23.4678 Y46.5267
G01 X23.4419 Y46.5175
G01 X23.4170 Y46.5057
G01 X23.3935 Y46.4916
G01 X23.3714 Y46.4752
G01 X23.3510 Y46.4568
G01 X22.7557 Y45.8615
G01 X22.7373 Y45.8411
G01 X22.7209 Y45.8190
G01 X22.7068 Y45.7955
G01 X22.6950 Y45.7706
G01 X22.6858 Y45.7447
G01 X22.6791 Y45.7181
G01 X22.6751 Y45.6909
G01 X22.6737 Y45.6635
G01 X22.6737 Y44.8215
G01 X22.6751 Y44.7941
G01 X22.6791 Y44.7669
G01 X22.6858 Y44.7403
G01 X22.6950 Y44.7144
G01 X22.7068 Y44.6895
G01 X22.7209 Y44.6660
G01 X22.7373 Y44.6439
G01 X22.7557 Y44.6235
G01 X23.1897 Y44.1895
G01 X23.1897 Y33.1108
G01 X19.7487 Y29.6698
G01 X19.7252 Y29.6774
G01 X19.6983 Y29.6832
G01 X19.6710 Y29.6863
G01 X19.6435 Y29.6868
G01 X19.6162 Y29.6845
G01 X19.5891 Y29.6796
G01 X19.5627 Y29.6721
G01 X19.5371 Y29.6620
G01 X19.5127 Y29.6494
G01 X18.1270 Y28.8494
G01 X18.1039 Y28.8345
G01 X18.0824 Y28.8174
